X:2142
T:Bric-a-Brac Schottische. GHW.045
M:2/4
L:1/8
Q:240
S:George H.Watson,MS,Swanton Abbott,Norfolk,1850-1880
R:Schottische
O:England
A:Norfolk
N:Last note of 6th. nar is probably d, but has f# also marked. Last 16
N:bars marked TRIO at star
Z:vmp.Taz Tarry
K:D
A>df>e d>cd>B|A>^GA>B A2 d2|c>eg>f e>^de>A|B>cd>e f4|!
A>df>e d>cd>B|A>^GA>B A2 d2|^g>fe>d F>^Gc>B|A2 g2g2g2|!
A>df>e d>cd>B|A>^GA>B A2 d2|c>eg>f e>^de>A|B>cd>e f4|!
A>df>e d>cd>B|A>^GA>B A2 d2|^A>B=a>g ^G>A=g>f|e2 a2 d2 z2||!
|:d2 d>c B>^AB>F|G2 B2 F4|F2 ^A>c g>fe>f|d>ec>d B4|!
d2 d>c B>^AB>F|G2 B2 F4|B2 B>c d>Bc>^A|B2d2B2z2:|!
A>df>e d>cd>B|A>^GA>B A2 d2|c>eg>f e>^de>A|B>cd>e f4|!
A>df>e d>cd>B|A>^GA>B A2 d2|^A>B=a>g ^G>A=g>f|e2 a2 d2 z2||!
K:G
"TRIO"d3 B/G/ g3 d|e3 c/G/ g3 e|d3 B/G/ B3 G|A3 F/G/ d3 D|!
d3 B/G/ g3 d|_e3 c/G/ g3 e|d3 B/G/ d3 c|B>GA>F G2 z2:|!
K:D
A>df>e d>cd>B|A>^GA>B A2 d2|c>eg>f e>^de>A|B>cd>e f4|!
A>df>e d>cd>B|A>^GA>B A2 f2|a>gf>e d>A^G>A|f2e2 d2 z2||!


